usr/share/icons/biglinux-icons-material/24/actions/go-last.svg

<svg xmlns="http://www.w3.org/2000/svg" viewBox="0 0 24 24">
  <defs id="defs3051">
    <style type="text/css" id="current-color-scheme">
      .ColorScheme-Text {
        color:#363636;
      }
      </style>
  </defs>
 <path style="fill:currentColor;fill-opacity:1;stroke:none" 
     d="M 6.7070312 4 L 6 4.7070312 L 12.125 10.832031 L 13.292969 12 L 12.125 13.167969 L 6 19.292969 L 6.7070312 20 L 12.832031 13.875 L 14.707031 12 L 12.832031 10.125 L 6.7070312 4 z M 17 4 L 17 20 L 18 20 L 18 4 L 17 4 z "
     class="ColorScheme-Text"
     />
</svg>

<svg xmlns="http://www.w3.org/2000/svg" viewBox="0 0 24 24"><path d="M6.707 4 6 4.707l6.125 6.125L13.293 12l-1.168 1.168L6 19.293l.707.707 6.125-6.125L14.707 12l-1.875-1.875L6.707 4zM17 4v16h1V4h-1z" style="fill:currentColor;fill-opacity:1;stroke:none;color:#dedede"/></svg>
